svg/beetroots3Stems.svg

<?xml version="1.0" encoding="UTF-8" standalone="no"?>
<!-- Created with Inkscape (http://www.inkscape.org/) -->

<svg
   width="32"
   height="32"
   viewBox="0 0 8.4666666 8.4666668"
   version="1.1"
   id="svg5"
   inkscape:version="1.2 (dc2aeda, 2022-05-15)"
   sodipodi:docname="beets3Stems.svg"
   xmlns:inkscape="http://www.inkscape.org/namespaces/inkscape"
   xmlns:sodipodi="http://sodipodi.sourceforge.net/DTD/sodipodi-0.dtd"
   xmlns="http://www.w3.org/2000/svg"
   xmlns:svg="http://www.w3.org/2000/svg"
   xmlns:rdf="http://www.w3.org/1999/02/22-rdf-syntax-ns#"
   xmlns:cc="http://creativecommons.org/ns#">
  <sodipodi:namedview
     id="namedview7"
     pagecolor="#ffffff"
     bordercolor="#111111"
     borderopacity="1"
     inkscape:pageshadow="0"
     inkscape:pageopacity="0"
     inkscape:pagecheckerboard="1"
     inkscape:document-units="mm"
     showgrid="true"
     width="32mm"
     units="px"
     objecttolerance="10000"
     guidetolerance="10000"
     inkscape:snap-perpendicular="true"
     inkscape:snap-tangential="true"
     inkscape:zoom="34.90625"
     inkscape:cx="11.831692"
     inkscape:cy="22.818263"
     inkscape:window-width="2560"
     inkscape:window-height="1301"
     inkscape:window-x="0"
     inkscape:window-y="25"
     inkscape:window-maximized="0"
     inkscape:current-layer="layer1"
     inkscape:showpageshadow="0"
     inkscape:deskcolor="#d1d1d1">
    <inkscape:grid
       type="xygrid"
       id="grid9"
       units="px"
       empspacing="4" />
  </sodipodi:namedview>
  <defs
     id="defs2" />
  <g
     inkscape:label="Layer 1"
     inkscape:groupmode="layer"
     id="layer1">
    <path
       id="path772"
       style="fill:#000000;stroke:none;stroke-width:0.264583px;stroke-linecap:butt;stroke-linejoin:miter;stroke-opacity:1"
       d="M 3.96875 5.2916667 L 3.96875 6.35 L 3.4395833 5.8208333 L 2.9104167 5.8208333 L 3.96875 6.8791667 L 3.96875 8.4666667 L 4.4979167 8.4666667 L 4.4979167 6.8791667 L 5.55625 5.8208333 L 5.0270833 5.8208333 L 4.4979167 6.35 L 4.4979167 5.2916667 L 3.96875 5.2916667 z " />
    <path
       id="path488"
       style="fill:#000000;stroke:none;stroke-width:0.264583px;stroke-linecap:butt;stroke-linejoin:miter;stroke-opacity:1"
       d="M 6.6145833 5.2916667 L 6.6145833 6.35 L 6.0854167 5.8208333 L 5.55625 5.8208333 L 6.6145833 6.8791667 L 6.6145833 8.4666667 L 7.14375 8.4666667 L 7.14375 6.8791667 L 8.2020833 5.8208333 L 7.6729167 5.8208333 L 7.14375 6.35 L 7.14375 5.2916667 L 6.6145833 5.2916667 z " />
    <path
       id="path490"
       style="fill:#000000;stroke:none;stroke-width:0.264583px;stroke-linecap:butt;stroke-linejoin:miter;stroke-opacity:1"
       d="M 1.3229167 5.2916667 L 1.3229167 6.35 L 0.79375 5.8208333 L 0.26458333 5.8208333 L 1.3229167 6.8791667 L 1.3229167 8.4666667 L 1.8520833 8.4666667 L 1.8520833 6.8791667 L 2.9104167 5.8208333 L 2.38125 5.8208333 L 1.8520833 6.35 L 1.8520833 5.2916667 L 1.3229167 5.2916667 z " />
  </g>
  <metadata
     id="metadata33">
    <rdf:RDF>
      <cc:Work
         rdf:about="">
        <cc:license
           rdf:resource="http://creativecommons.org/licenses/by-sa/4.0/" />
      </cc:Work>
      <cc:License
         rdf:about="http://creativecommons.org/licenses/by-sa/4.0/">
        <cc:permits
           rdf:resource="http://creativecommons.org/ns#Reproduction" />
        <cc:permits
           rdf:resource="http://creativecommons.org/ns#Distribution" />
        <cc:requires
           rdf:resource="http://creativecommons.org/ns#Notice" />
        <cc:requires
           rdf:resource="http://creativecommons.org/ns#Attribution" />
        <cc:permits
           rdf:resource="http://creativecommons.org/ns#DerivativeWorks" />
        <cc:requires
           rdf:resource="http://creativecommons.org/ns#ShareAlike" />
      </cc:License>
    </rdf:RDF>
  </metadata>
</svg>

<svg width="32" height="32" viewBox="0 0 8.467 8.467" xmlns="http://www.w3.org/2000/svg"><path style="fill:#000;stroke:none;stroke-width:.264583px;stroke-linecap:butt;stroke-linejoin:miter;stroke-opacity:1" d="M3.969 5.292V6.35l-.53-.53H2.91L3.97 6.88v1.587h.529V6.879l1.058-1.058h-.529l-.53.529V5.292H3.97z"/><path style="fill:#000;stroke:none;stroke-width:.264583px;stroke-linecap:butt;stroke-linejoin:miter;stroke-opacity:1" d="M6.615 5.292V6.35l-.53-.53h-.529l1.059 1.06v1.587h.529V6.879l1.058-1.058h-.53l-.528.529V5.292h-.53zM1.323 5.292V6.35l-.53-.53H.266l1.058 1.06v1.587h.53V6.879L2.91 5.821h-.529l-.529.529V5.292h-.53z"/></svg>
